X:1
T:Harris Dance
M:C
L:1/8
Q:80
C:Trad. arr. Bruce Gandy
S:Reel
K:HP
|: {gf}g2{a}fg{ag}a2e2 | \
{gf}g2{a}gd{g}d{G}d{g}dB | \
{gf}g2{a}fg{ag}a2e2 |
{a}ge{g}eB{g}BA{gAGAG}A2 :: \
{gef}e2{A}ef{g}ed{g}c{d}A | \
{Gdc}d2{g}dB{g}B{d}G{e}G{d}B |
{gef}e2{A}ef{g}ed{g}c{d}A | \
{gBd}B2dB{g}BA{gAGAG}A2 :| \
{gef}e2{A}ef{g}ed{g}c{d}A |
{Gdc}d2{g}dB{g}B{d}G{e}G{d}B | \
{gef}e2{A}ef{g}ed{g}c{d}A | \
{gBd}B2gB{g}BA{gAGAG}A2 :|
